X: 1
T: The New Broom
C: Vincent Broderick
M: 4/4
L: 1/8
R: barndance
K: G Major
|: (3DEF |
G3 B d2 Bd | e/g/e dB d2 BA | GFGA B2 AG | A2 E2 E2 (3DEF |
G3 B d2 Bd | e/g/e dB d2 Bd | edge dBAc | B2 G2 G2 :|
|: ga |
b2 ba g3 a | bgag e/g/e d2 | edge dBGA |
1 BAAG A2 ga | b2 ba g3 a | bgag e/g/e d2 | edge dBAc | B2 G2 G2 :|
2 BAAG AcBA | G3 B d2 Bd | e/g/e dB d2Bd| edge dBAc | B2 G2 G2 ||
